www/assets/icons/turn_right.svg

<svg xmlns="http://www.w3.org/2000/svg" width="24" height="24" viewBox="0 0 24 24" fill='currentColor'><path d="m15.17 10-1.59 1.59L15 13l4-4-4-4-1.41 1.41L15.17 8H7c-1.1 0-2 .9-2 2v9h2v-9z"/></svg>

<svg width="24" height="24" viewBox="0 0 24 24" xmlns="http://www.w3.org/2000/svg" fill='currentColor'><path d="M15.17 10L13.58 11.59L15 13L19 9L15 5L13.59 6.41L15.17 8H7C5.9 8 5 8.9 5 10V19H7V10H15.17Z"/></svg>
